;START_OF_HEADER
;HEADER_VERSION:0.1
;FLAVOR:Griffin
;GENERATOR.NAME:Cura_SteamEngine
;GENERATOR.VERSION:5.2.1
;GENERATOR.BUILD_DATE:2022-10-19
;TARGET_MACHINE.NAME:Ultimaker S5
;EXTRUDER_TRAIN.0.INITIAL_TEMPERATURE:200
;EXTRUDER_TRAIN.0.MATERIAL.VOLUME_USED:16345
;EXTRUDER_TRAIN.0.MATERIAL.GUID:506c9f0d-e3aa-4bd4-b2d2-23e2425b1aa9
;EXTRUDER_TRAIN.0.NOZZLE.DIAMETER:0.4
;EXTRUDER_TRAIN.0.NOZZLE.NAME:AA 0.4
;BUILD_PLATE.INITIAL_TEMPERATURE:60
;BUILD_VOLUME.TEMPERATURE:28
;PRINT.TIME:10093
;PRINT.GROUPS:1
;PRINT.SIZE.MIN.X:136.417
;PRINT.SIZE.MIN.Y:79.894
;PRINT.SIZE.MIN.Z:0.2
;PRINT.SIZE.MAX.X:193.582
;PRINT.SIZE.MAX.Y:160.105
;PRINT.SIZE.MAX.Z:20
;SLICE_UUID:98584c9b-91ef-4def-92e5-6e1e04e64541
;END_OF_HEADER
;Generated with Cura_SteamEngine 5.2.1
T0
M82 ;absolute extrusion mode

G92 E0
M109 S200
G280 S1
G0 Z20.001
G1 F2700 E-6.5
;LAYER_COUNT:133
;LAYER:0
M107
M204 S1000
M205 X20 Y20
G1 F600 Z2.2
G0 F1285.7 X192.512 Y156.429 Z2.2
;TYPE:SKIRT
G1 F600 Z0.2
G1 F2700 E0
G1 F600 X192.1 Y157.051 E0.01123
G1 X191.624 Y157.626 E0.02246
G1 X191.09 Y158.146 E0.03368
G1 X190.311 Y158.752 E0.04853
G1 X189.493 Y159.257 E0.063
G1 X188.82 Y159.578 E0.07422
G1 X188.116 Y159.825 E0.08544
G1 X187.39 Y159.995 E0.09666
G1 X186.513 Y160.104 E0.10996
G1 X143.96 Y160.105 E0.75032
G1 X143.215 Y160.065 E0.76155
G1 X142.479 Y159.946 E0.77277
G1 X141.62 Y159.712 E0.78616
G1 X140.761 Y159.38 E0.80002
G1 X140.098 Y159.038 E0.81125
G1 X139.476 Y158.627 E0.82247
G1 X138.901 Y158.152 E0.83369
G1 X138.38 Y157.617 E0.84493
G1 X137.771 Y156.835 E0.85984
G1 X137.265 Y156.016 E0.87433
G1 X136.944 Y155.343 E0.88555
G1 X136.697 Y154.639 E0.89678
G1 X136.527 Y153.913 E0.908
G1 X136.418 Y153.036 E0.9213
G1 X136.417 Y87.437 E1.90846
G1 X136.457 Y86.692 E1.91969
G1 X136.576 Y85.956 E1.93091
G1 X136.81 Y85.097 E1.94431
G1 X137.142 Y84.238 E1.95816
G1 X137.484 Y83.575 E1.96939
G1 X137.895 Y82.953 E1.98061
G1 X138.37 Y82.378 E1.99183
G1 X138.905 Y81.857 E2.00307
G1 X139.687 Y81.248 E2.01799
G1 X140.506 Y80.742 E2.03247
G1 X141.179 Y80.421 E2.04369
G1 X141.883 Y80.174 E2.05492
G1 X142.609 Y80.004 E2.06614
G1 X143.486 Y79.895 E2.07944
G1 X186.04 Y79.894 E2.71981
G1 X186.785 Y79.934 E2.73104
G1 X187.521 Y80.053 E2.74226
G1 X188.384 Y80.289 E2.75572
G1 X189.244 Y80.621 E2.7696
G1 X189.906 Y80.964 E2.78082
G1 X190.528 Y81.376 E2.79204
G1 X191.103 Y81.852 E2.80328
G1 X191.623 Y82.386 E2.81449
G1 X192.229 Y83.165 E2.82934
G1 X192.734 Y83.983 E2.84381
G1 X193.055 Y84.656 E2.85503
G1 X193.302 Y85.36 E2.86626
G1 X193.472 Y86.086 E2.87748
G1 X193.581 Y86.963 E2.89078
G1 X193.582 Y152.563 E3.87796
G1 X193.542 Y153.308 E3.88918
G1 X193.423 Y154.044 E3.9004
G1 X193.187 Y154.907 E3.91387
G1 X192.855 Y155.767 E3.92774
G1 X192.512 Y156.429 E3.93896
G0 F1285.7 X192.072 Y156.23
G1 F600 X191.669 Y156.826 E3.94979
G1 X191.203 Y157.374 E3.96061
G1 X190.678 Y157.867 E3.97145
G1 X190.018 Y158.371 E3.98395
G1 X189.242 Y158.847 E3.99765
G1 X188.59 Y159.153 E4.00848
G1 X187.909 Y159.385 E4.01931
G1 X187.206 Y159.54 E4.03014
G1 X186.165 Y159.624 E4.04586
G1 X143.96 Y159.625 E4.68098
G1 X143.242 Y159.585 E4.6918
G1 X142.532 Y159.466 E4.70263
G1 X141.759 Y159.253 E4.7147
G1 X140.935 Y158.932 E4.72801
G1 X140.297 Y158.598 E4.73884
G1 X139.701 Y158.196 E4.74966
G1 X139.152 Y157.729 E4.76051
G1 X138.659 Y157.205 E4.77134
G1 X138.152 Y156.543 E4.78388
G1 X137.675 Y155.765 E4.79762
G1 X137.369 Y155.113 E4.80846
G1 X137.137 Y154.432 E4.81928
G1 X136.982 Y153.729 E4.83012
G1 X136.898 Y152.688 E4.84583
G1 X136.897 Y87.437 E5.82776
G1 X136.937 Y86.718 E5.83859
G1 X137.056 Y86.009 E5.84941
G1 X137.269 Y85.236 E5.86148
G1 X137.59 Y84.412 E5.87479
G1 X137.924 Y83.774 E5.88562
G1 X138.326 Y83.178 E5.89644
G1 X138.793 Y82.629 E5.90729
G1 X139.317 Y82.136 E5.91811
G1 X139.979 Y81.629 E5.93066
G1 X140.757 Y81.152 E5.9444
G1 X141.409 Y80.846 E5.95523
G1 X142.09 Y80.614 E5.96606
G1 X142.793 Y80.459 E5.97689
G1 X143.834 Y80.375 E5.99261
G1 X186.04 Y80.374 E6.62774
G1 X186.758 Y80.414 E6.63857
G1 X187.468 Y80.533 E6.6494
G1 X188.245 Y80.748 E6.66153
G1 X189.069 Y81.069 E6.67484
G1 X189.707 Y81.404 E6.68568
G1 X190.303 Y81.807 E6.69651
G1 X190.851 Y82.273 E6.70734
G1 X191.344 Y82.798 E6.71817
G1 X191.848 Y83.458 E6.73067
G1 X192.324 Y84.234 E6.74437
G1 X192.63 Y84.886 E6.75521
G1 X192.862 Y85.567 E6.76603
G1 X193.017 Y86.27 E6.77687
G1 X193.101 Y87.311 E6.79258
G1 X193.102 Y152.563 E7.77452
G1 X193.062 Y153.282 E7.78536
G1 X192.943 Y153.991 E7.79618
G1 X192.728 Y154.768 E7.80831
G1 X192.407 Y155.592 E7.82162
G1 X192.072 Y156.23 E7.83246
G0 F1285.7 X191.633 Y156.028
G1 F600 X191.239 Y156.598 E7.84289
G1 X190.782 Y157.118 E7.85331
G1 X190.268 Y157.582 E7.86373
G1 X189.582 Y158.076 E7.87645
G1 X188.991 Y158.437 E7.88687
G1 X188.362 Y158.727 E7.89729
G1 X187.704 Y158.943 E7.90772
G1 X187.025 Y159.082 E7.91815
G1 X186.165 Y159.144 E7.93112
G1 X143.96 Y159.145 E8.56624
G1 X143.269 Y159.105 E8.57666
G1 X142.587 Y158.986 E8.58707
G1 X141.897 Y158.793 E8.59786
G1 X141.11 Y158.484 E8.61058
G1 X140.498 Y158.159 E8.62101
G1 X139.928 Y157.765 E8.63144
G1 X139.408 Y157.309 E8.64184
G1 X138.943 Y156.795 E8.65227
G1 X138.446 Y156.105 E8.66507
G1 X138.085 Y155.514 E8.67549
G1 X137.795 Y154.885 E8.68591
G1 X137.579 Y154.227 E8.69634
G1 X137.44 Y153.548 E8.70677
G1 X137.378 Y152.688 E8.71974
G1 X137.377 Y87.437 E9.70167
G1 X137.417 Y86.746 E9.71208
G1 X137.536 Y86.064 E9.7225
G1 X137.729 Y85.374 E9.73328
G1 X138.038 Y84.587 E9.74601
G1 X138.363 Y83.975 E9.75643
G1 X138.757 Y83.405 E9.76686
G1 X139.213 Y82.885 E9.77727
G1 X139.727 Y82.42 E9.7877
G1 X140.417 Y81.923 E9.8005
G1 X141.008 Y81.562 E9.81092
G1 X141.637 Y81.272 E9.82134
G1 X142.295 Y81.056 E9.83176
G1 X142.974 Y80.917 E9.84219
G1 X143.834 Y80.855 E9.85517
G1 X186.04 Y80.854 E10.4903
G1 X186.731 Y80.894 E10.50072
G1 X187.413 Y81.013 E10.51114
G1 X188.107 Y81.208 E10.52198
G1 X188.894 Y81.517 E10.53471
G1 X189.505 Y81.843 E10.54513
G1 X190.075 Y82.237 E10.55556
G1 X190.595 Y82.694 E10.56597
G1 X191.059 Y83.208 E10.57639
G1 X191.553 Y83.894 E10.58912
G1 X191.914 Y84.485 E10.59954
G1 X192.204 Y85.114 E10.60996
G1 X192.42 Y85.772 E10.62038
G1 X192.559 Y86.451 E10.63081
G1 X192.621 Y87.311 E10.64379
G1 X192.622 Y152.563 E11.62573
G1 X192.582 Y153.254 E11.63614
G1 X192.463 Y153.936 E11.64656
G1 X192.268 Y154.63 E11.65741
G1 X191.959 Y155.417 E11.67013
G1 X191.633 Y156.028 E11.68056
G0 F1285.7 X191.195 Y155.824
G1 F600 X190.81 Y156.366 E11.69056
G1 X190.363 Y156.857 E11.70055
G1 X189.517 Y157.555 E11.71706
G1 X188.741 Y158.026 E11.73072
G1 X188.136 Y158.3 E11.74071
G1 X187.502 Y158.5 E11.75072
G1 X186.849 Y158.621 E11.76071
G1 X186.165 Y158.664 E11.77102
G1 X143.96 Y158.665 E12.40614
G1 X143.297 Y158.625 E12.41614
G1 X142.644 Y158.506 E12.42613
G1 X141.904 Y158.28 E12.43777
G1 X141.286 Y158.037 E12.44776
G1 X140.702 Y157.72 E12.45776
G1 X140.16 Y157.336 E12.46776
G1 X139.668 Y156.89 E12.47775
G1 X138.967 Y156.04 E12.49433
G1 X138.496 Y155.264 E12.50799
G1 X138.222 Y154.659 E12.51799
G1 X138.022 Y154.025 E12.52799
G1 X137.901 Y153.372 E12.53798
G1 X137.858 Y152.688 E12.5483
G1 X137.857 Y87.437 E13.53022
G1 X137.897 Y86.774 E13.54022
G1 X138.016 Y86.121 E13.55021
G1 X138.242 Y85.381 E13.56185
G1 X138.485 Y84.763 E13.57184
G1 X138.802 Y84.179 E13.58184
G1 X139.186 Y83.637 E13.59184
G1 X139.632 Y83.145 E13.60183
G1 X140.482 Y82.444 E13.61841
G1 X141.258 Y81.973 E13.63207
G1 X141.863 Y81.699 E13.64207
G1 X142.497 Y81.499 E13.65207
G1 X143.15 Y81.378 E13.66207
G1 X143.834 Y81.335 E13.67238
G1 X186.04 Y81.334 E14.30751
G1 X186.703 Y81.374 E14.31751
G1 X187.356 Y81.493 E14.3275
G1 X188.1 Y81.72 E14.3392
G1 X188.718 Y81.964 E14.3492
G1 X189.301 Y82.281 E14.35919
G1 X189.843 Y82.666 E14.36919
G1 X190.334 Y83.113 E14.37918
G1 X191.032 Y83.959 E14.39569
G1 X191.503 Y84.735 E14.40935
G1 X191.777 Y85.34 E14.41934
G1 X191.977 Y85.974 E14.42935
G1 X192.098 Y86.627 E14.43934
G1 X192.141 Y87.311 E14.44966
G1 X192.142 Y152.563 E15.4316
G1 X192.102 Y153.226 E15.44159
G1 X191.983 Y153.879 E15.45158
G1 X191.756 Y154.623 E15.46329
G1 X191.512 Y155.241 E15.47328
G1 X191.195 Y155.824 E15.48327
G0 F1285.7 X190.757 Y155.618
G1 F600 X190.383 Y156.131 E15.49282
G1 X189.946 Y156.592 E15.50238
G1 X189.228 Y157.17 E15.51625
G1 X188.492 Y157.615 E15.5292
G1 X187.911 Y157.872 E15.53876
G1 X187.303 Y158.054 E15.54831
G1 X186.677 Y158.158 E15.55786
G1 X186.165 Y158.184 E15.56557
G1 X143.96 Y158.185 E16.20069
G1 X143.327 Y158.145 E16.21024
G1 X142.703 Y158.026 E16.2198
G1 X142.053 Y157.824 E16.23004
G1 X141.463 Y157.589 E16.2396
G1 X140.907 Y157.283 E16.24915
G1 X140.395 Y156.908 E16.2587
G1 X139.933 Y156.473 E16.26825
G1 X139.352 Y155.751 E16.28219
G1 X138.907 Y155.015 E16.29513
G1 X138.65 Y154.434 E16.30469
G1 X138.468 Y153.826 E16.31425
G1 X138.364 Y153.2 E16.32379
G1 X138.338 Y152.688 E16.33151
G1 X138.337 Y87.437 E17.31344
G1 X138.377 Y86.804 E17.32298
G1 X138.496 Y86.18 E17.33254
G1 X138.698 Y85.53 E17.34278
G1 X138.933 Y84.94 E17.35234
G1 X139.239 Y84.384 E17.36189
G1 X139.614 Y83.872 E17.37144
G1 X140.049 Y83.41 E17.38099
G1 X140.771 Y82.829 E17.39494
G1 X141.507 Y82.384 E17.40788
G1 X142.088 Y82.127 E17.41744
G1 X142.696 Y81.945 E17.42699
G1 X143.322 Y81.841 E17.43654
G1 X143.834 Y81.815 E17.44425
G1 X186.04 Y81.814 E18.07939
G1 X186.673 Y81.854 E18.08893
G1 X187.297 Y81.973 E18.09849
G1 X187.951 Y82.176 E18.1088
G1 X188.54 Y82.411 E18.11834
G1 X189.095 Y82.719 E18.12789
G1 X189.608 Y83.093 E18.13745
G1 X190.069 Y83.53 E18.147
G1 X190.647 Y84.248 E18.16088
G1 X191.092 Y84.984 E18.17382
G1 X191.349 Y85.565 E18.18338
G1 X191.531 Y86.173 E18.19293
G1 X191.635 Y86.799 E18.20248
G1 X191.661 Y87.311 E18.21019
G1 X191.662 Y152.563 E19.19213
G1 X191.622 Y153.196 E19.20168
G1 X191.503 Y153.82 E19.21124
G1 X191.3 Y154.474 E19.22154
G1 X191.065 Y155.063 E19.23109
G1 X190.757 Y155.618 E19.24064
G0 F1285.7 X190.321 Y155.409
G1 F600 X189.956 Y155.891 E19.24974
G1 X189.532 Y156.32 E19.25881
G1 X188.933 Y156.789 E19.27026
G1 X188.244 Y157.203 E19.28236
G1 X187.69 Y157.442 E19.29144
G1 X187.109 Y157.605 E19.30052
G1 X186.421 Y157.704 E19.31098
G1 X143.96 Y157.705 E19.94995
G1 X143.358 Y157.665 E19.95903
G1 X142.398 Y157.446 E19.97385
G1 X141.641 Y157.143 E19.98612
G1 X141.116 Y156.846 E19.99519
G1 X140.634 Y156.482 E20.00428
G1 X140.205 Y156.058 E20.01336
G1 X139.734 Y155.457 E20.02485
G1 X139.319 Y154.767 E20.03697
G1 X139.08 Y154.213 E20.04605
G1 X138.917 Y153.632 E20.05513
G1 X138.818 Y152.944 E20.06559
G1 X138.817 Y87.437 E21.05137
G1 X138.857 Y86.835 E21.06045
G1 X139.076 Y85.875 E21.07526
G1 X139.379 Y85.118 E21.08753
G1 X139.676 Y84.593 E21.09661
G1 X140.04 Y84.111 E21.1057
G1 X140.464 Y83.682 E21.11478
G1 X141.065 Y83.211 E21.12627
G1 X141.755 Y82.796 E21.13838
G1 X142.309 Y82.557 E21.14746
G1 X142.89 Y82.394 E21.15654
G1 X143.578 Y82.295 E21.167
G1 X186.04 Y82.294 E21.80599
G1 X186.642 Y82.334 E21.81507
G1 X187.607 Y82.554 E21.82996
G1 X188.361 Y82.858 E21.8422
G1 X188.886 Y83.155 E21.85128
G1 X189.368 Y83.52 E21.86037
G1 X189.797 Y83.944 E21.86945
G1 X190.266 Y84.543 E21.8809
G1 X190.68 Y85.232 E21.893
G1 X190.919 Y85.786 E21.90207
G1 X191.082 Y86.367 E21.91116
G1 X191.181 Y87.055 E21.92162
G1 X191.182 Y152.563 E22.90741
G1 X191.142 Y153.165 E22.91649
G1 X190.922 Y154.13 E22.93138
G1 X190.618 Y154.884 E22.94362
G1 X190.321 Y155.409 E22.95269
G0 F1285.7 X189.885 Y155.197
G1 F600 X189.532 Y155.646 E22.96129
G1 X189.12 Y156.041 E22.96988
G1 X188.488 Y156.498 E22.98161
G1 X187.997 Y156.789 E22.9902
G1 X187.471 Y157.009 E22.99878
G1 X186.918 Y157.154 E23.00739
G1 X186.165 Y157.224 E23.01877
G1 X143.96 Y157.225 E23.65389
G1 X143.391 Y157.185 E23.66247
G1 X142.539 Y156.987 E23.67563
G1 X141.822 Y156.697 E23.68727
G1 X141.328 Y156.41 E23.69587
G1 X140.879 Y156.058 E23.70445
G1 X140.483 Y155.646 E23.71305
G1 X140.024 Y155.011 E23.72485
G1 X139.733 Y154.52 E23.73343
G1 X139.513 Y153.994 E23.74201
G1 X139.368 Y153.441 E23.75062
G1 X139.298 Y152.688 E23.762
G1 X139.297 Y87.437 E24.74392
G1 X139.337 Y86.867 E24.75252
G1 X139.535 Y86.015 E24.76569
G1 X139.825 Y85.299 E24.77731
G1 X140.112 Y84.805 E24.78591
G1 X140.464 Y84.356 E24.79449
G1 X140.876 Y83.96 E24.80309
G1 X141.511 Y83.501 E24.81488
G1 X142.002 Y83.21 E24.82347
G1 X142.528 Y82.99 E24.83205
G1 X143.081 Y82.845 E24.84066
G1 X143.834 Y82.775 E24.85204
G1 X186.04 Y82.774 E25.48717
G1 X186.609 Y82.814 E25.49575
G1 X187.465 Y83.013 E25.50898
G1 X188.181 Y83.304 E25.52061
G1 X188.674 Y83.591 E25.52919
G1 X189.123 Y83.944 E25.53779
G1 X189.518 Y84.356 E25.54638
G1 X189.975 Y84.988 E25.55811
G1 X190.266 Y85.479 E25.5667
G1 X190.486 Y86.005 E25.57528
G1 X190.631 Y86.558 E25.58389
G1 X190.701 Y87.311 E25.59527
G1 X190.702 Y152.563 E26.57721
G1 X190.662 Y153.133 E26.58581
G1 X190.463 Y153.989 E26.59903
G1 X190.172 Y154.704 E26.61065
G1 X189.885 Y155.197 E26.61923
G0 F1285.7 X189.451 Y154.981
G1 F600 X189.11 Y155.395 E26.6273
G1 X188.424 Y155.98 E26.64087
G1 X187.753 Y156.375 E26.65259
G1 X187.255 Y156.575 E26.66066
G1 X186.733 Y156.699 E26.66874
G1 X186.165 Y156.744 E26.67731
G1 X143.96 Y156.745 E27.31243
G1 X143.425 Y156.705 E27.32051
G1 X142.676 Y156.527 E27.33209
G1 X142.004 Y156.251 E27.34302
G1 X141.543 Y155.976 E27.3511
G1 X141.129 Y155.635 E27.35917
G1 X140.542 Y154.947 E27.37278
G1 X140.147 Y154.276 E27.3845
G1 X139.947 Y153.778 E27.39258
G1 X139.823 Y153.256 E27.40065
G1 X139.778 Y152.688 E27.40922
G1 X139.777 Y87.437 E28.39115
G1 X139.817 Y86.902 E28.39922
G1 X139.995 Y86.153 E28.41081
G1 X140.271 Y85.481 E28.42174
G1 X140.546 Y85.02 E28.42982
G1 X140.887 Y84.606 E28.43789
G1 X141.575 Y84.019 E28.4515
G1 X142.246 Y83.624 E28.46322
G1 X142.744 Y83.424 E28.47129
G1 X143.266 Y83.3 E28.47937
G1 X143.834 Y83.255 E28.48794
G1 X186.04 Y83.254 E29.12307
G1 X186.575 Y83.294 E29.13115
G1 X187.325 Y83.472 E29.14275
G1 X187.998 Y83.749 E29.1537
G1 X188.458 Y84.025 E29.16177
G1 X188.872 Y84.366 E29.16984
G1 X189.457 Y85.052 E29.18341
G1 X189.852 Y85.723 E29.19513
G1 X190.052 Y86.221 E29.2032
G1 X190.176 Y86.743 E29.21128
G1 X190.221 Y87.311 E29.21985
G1 X190.222 Y152.563 E30.20179
G1 X190.182 Y153.098 E30.20987
G1 X190.004 Y153.848 E30.22147
G1 X189.727 Y154.521 E30.23242
G1 X189.451 Y154.981 E30.24049
G0 F1285.7 X189.282 Y154.336
G1 F600 X188.69 Y155.137 E30.25548
G1 X188.287 Y155.47 E30.26335
G1 X187.51 Y155.959 E30.27716
G1 X187.044 Y156.138 E30.28467
G1 X186.44 Y156.264 E30.29396
G1 X143.606 Y156.265 E30.93854
G1 X142.377 Y155.924 E30.95774
G1 X141.764 Y155.543 E30.9686
G1 X141.387 Y155.215 E30.97612
G1 X141.052 Y154.81 E30.98403
G1 X140.563 Y154.033 E30.99784
G1 X140.384 Y153.567 E31.00536
G1 X140.258 Y152.963 E31.01464
G1 X140.257 Y87.083 E32.00603
G1 X140.523 Y86.126 E32.02098
G1 X140.979 Y85.241 E32.03596
G1 X141.307 Y84.864 E32.04348
G1 X141.712 Y84.529 E32.05139
G1 X142.489 Y84.04 E32.06521
G1 X142.955 Y83.861 E32.07272
G1 X143.559 Y83.735 E32.082
G1 X186.395 Y83.734 E32.72662
G1 X187.624 Y84.077 E32.74582
G1 X188.237 Y84.458 E32.75668
G1 X188.614 Y84.786 E32.7642
G1 X188.947 Y85.189 E32.77207
G1 X189.436 Y85.966 E32.78588
G1 X189.615 Y86.432 E32.7934
G1 X189.741 Y87.036 E32.80268
G1 X189.742 Y152.917 E33.79409
G1 X189.475 Y153.876 E33.80907
G1 X189.282 Y154.336 E33.81657
G0 F1285.7 X188.944 Y153.988
G1 F600 X188.588 Y154.534 E33.82638
G1 X188.274 Y154.869 E33.83329
G1 X187.441 Y155.481 E33.84885
G1 X186.838 Y155.697 E33.85849
G1 X186.165 Y155.784 E33.8687
G1 X143.643 Y155.785 E34.50859
G1 X142.536 Y155.468 E34.52592
G1 X141.99 Y155.112 E34.53573
G1 X141.655 Y154.799 E34.54262
G1 X141.042 Y153.965 E34.5582
