;START_OF_HEADER
;HEADER_VERSION:0.1
;FLAVOR:Griffin
;GENERATOR.NAME:Cura_SteamEngine
;GENERATOR.VERSION:5.2.1
;GENERATOR.BUILD_DATE:2022-10-19
;TARGET_MACHINE.NAME:Ultimaker S5
;EXTRUDER_TRAIN.0.INITIAL_TEMPERATURE:205
;EXTRUDER_TRAIN.0.MATERIAL.VOLUME_USED:7487
;EXTRUDER_TRAIN.0.MATERIAL.GUID:506c9f0d-e3aa-4bd4-b2d2-23e2425b1aa9
;EXTRUDER_TRAIN.0.NOZZLE.DIAMETER:0.4
;EXTRUDER_TRAIN.0.NOZZLE.NAME:AA 0.4
;BUILD_PLATE.INITIAL_TEMPERATURE:60
;BUILD_VOLUME.TEMPERATURE:28
;PRINT.TIME:3344
;PRINT.GROUPS:1
;PRINT.SIZE.MIN.X:137.018
;PRINT.SIZE.MIN.Y:80.495
;PRINT.SIZE.MIN.Z:0.2
;PRINT.SIZE.MAX.X:192.982
;PRINT.SIZE.MAX.Y:159.505
;PRINT.SIZE.MAX.Z:7
;SLICE_UUID:5982c47a-9cda-470e-8e4c-11314f7a2eb9
;END_OF_HEADER
;Generated with Cura_SteamEngine 5.2.1
T0
M82 ;absolute extrusion mode

G92 E0
M109 S205
G280 S1
G0 Z20.001
G1 F2700 E-6.5
;LAYER_COUNT:25
;LAYER:0
M107
M204 S1000
M205 X20 Y20
G1 F600 Z2.2
G0 F1285.7 X192.352 Y155.439 Z2.2
;TYPE:SKIRT
G1 F600 Z0.2
G1 F2700 E0
G1 F600 X192.005 Y156.1 E0.01123
G1 X191.591 Y156.72 E0.02245
G1 X191.112 Y157.292 E0.03368
G1 X190.575 Y157.81 E0.04491
G1 X189.985 Y158.267 E0.05614
G1 X189.35 Y158.658 E0.06736
G1 X188.677 Y158.979 E0.07858
G1 X187.973 Y159.226 E0.08981
G1 X187.247 Y159.396 E0.10103
G1 X186.369 Y159.505 E0.11434
G1 X143.978 Y159.505 E0.75226
G1 X143.233 Y159.465 E0.76349
G1 X142.497 Y159.346 E0.77471
G1 X141.778 Y159.148 E0.78593
G1 X141.084 Y158.875 E0.79715
G1 X140.423 Y158.528 E0.80839
G1 X139.803 Y158.114 E0.81961
G1 X139.231 Y157.635 E0.83083
G1 X138.713 Y157.098 E0.84206
G1 X138.256 Y156.508 E0.85329
G1 X137.865 Y155.873 E0.86451
G1 X137.544 Y155.2 E0.87574
G1 X137.297 Y154.496 E0.88696
G1 X137.127 Y153.77 E0.89818
G1 X137.018 Y152.892 E0.9115
G1 X137.018 Y87.455 E1.89622
G1 X137.058 Y86.71 E1.90745
G1 X137.177 Y85.974 E1.91867
G1 X137.375 Y85.255 E1.92989
G1 X137.648 Y84.561 E1.94111
G1 X137.995 Y83.9 E1.95235
G1 X138.409 Y83.28 E1.96357
G1 X138.888 Y82.708 E1.97479
G1 X139.425 Y82.19 E1.98602
G1 X140.015 Y81.733 E1.99725
G1 X140.65 Y81.342 E2.00848
G1 X141.323 Y81.021 E2.0197
G1 X142.027 Y80.774 E2.03092
G1 X142.753 Y80.604 E2.04214
G1 X143.631 Y80.495 E2.05546
G1 X186.022 Y80.495 E2.69338
G1 X186.767 Y80.535 E2.7046
G1 X187.503 Y80.654 E2.71582
G1 X188.222 Y80.852 E2.72705
G1 X188.916 Y81.125 E2.73827
G1 X189.577 Y81.472 E2.7495
G1 X190.197 Y81.886 E2.76072
G1 X190.769 Y82.365 E2.77195
G1 X191.287 Y82.902 E2.78318
G1 X191.744 Y83.492 E2.79441
G1 X192.135 Y84.127 E2.80563
G1 X192.456 Y84.8 E2.81685
G1 X192.703 Y85.504 E2.82808
G1 X192.873 Y86.23 E2.8393
G1 X192.982 Y87.108 E2.85261
G1 X192.982 Y152.545 E3.83734
G1 X192.942 Y153.29 E3.84856
G1 X192.823 Y154.026 E3.85978
G1 X192.625 Y154.745 E3.87101
G1 X192.352 Y155.439 E3.88223
G0 F1285.7 X191.872 Y155.331
G1 F600 X191.527 Y155.963 E3.89306
G1 X191.114 Y156.552 E3.90389
G1 X190.638 Y157.092 E3.91472
G1 X190.106 Y157.576 E3.92555
G1 X189.522 Y157.998 E3.93639
G1 X188.896 Y158.353 E3.94722
G1 X188.234 Y158.636 E3.95805
G1 X187.545 Y158.843 E3.96888
G1 X186.837 Y158.973 E3.97971
G1 X186.022 Y159.025 E3.992
G1 X143.978 Y159.025 E4.6247
G1 X143.259 Y158.985 E4.63553
G1 X142.55 Y158.866 E4.64635
G1 X141.858 Y158.668 E4.65718
G1 X141.192 Y158.395 E4.66801
G1 X140.56 Y158.05 E4.67885
G1 X139.971 Y157.637 E4.68968
G1 X139.431 Y157.161 E4.70051
G1 X138.947 Y156.629 E4.71133
G1 X138.525 Y156.045 E4.72217
G1 X138.17 Y155.419 E4.733
G1 X137.887 Y154.757 E4.74384
G1 X137.68 Y154.068 E4.75466
G1 X137.55 Y153.36 E4.7655
G1 X137.498 Y152.545 E4.77779
G1 X137.498 Y87.455 E5.75729
G1 X137.538 Y86.736 E5.76813
G1 X137.657 Y86.027 E5.77894
G1 X137.855 Y85.335 E5.78978
G1 X138.128 Y84.669 E5.80061
G1 X138.473 Y84.037 E5.81144
G1 X138.886 Y83.448 E5.82227
G1 X139.362 Y82.908 E5.8331
G1 X139.894 Y82.424 E5.84392
G1 X140.478 Y82.002 E5.85477
G1 X141.104 Y81.647 E5.8656
G1 X141.766 Y81.364 E5.87643
G1 X142.455 Y81.157 E5.88726
G1 X143.163 Y81.027 E5.89809
G1 X143.978 Y80.975 E5.91038
G1 X186.022 Y80.975 E6.54308
G1 X186.741 Y81.015 E6.55391
G1 X187.45 Y81.134 E6.56473
G1 X188.142 Y81.332 E6.57556
G1 X188.808 Y81.605 E6.58639
G1 X189.44 Y81.95 E6.59723
G1 X190.029 Y82.363 E6.60805
G1 X190.569 Y82.839 E6.61889
G1 X191.053 Y83.371 E6.62971
G1 X191.475 Y83.955 E6.64055
G1 X191.83 Y84.581 E6.65138
G1 X192.113 Y85.243 E6.66222
G1 X192.32 Y85.932 E6.67304
G1 X192.45 Y86.64 E6.68387
G1 X192.502 Y87.455 E6.69616
G1 X192.502 Y152.545 E7.67567
G1 X192.462 Y153.264 E7.6865
G1 X192.343 Y153.973 E7.69732
G1 X192.145 Y154.665 E7.70815
G1 X191.872 Y155.331 E7.71899
G0 F1285.7 X191.393 Y155.219
G1 F600 X191.049 Y155.82 E7.72941
G1 X190.638 Y156.378 E7.73984
G1 X190.166 Y156.884 E7.75025
G1 X189.638 Y157.333 E7.76068
G1 X189.063 Y157.718 E7.77109
G1 X188.446 Y158.033 E7.78152
G1 X187.798 Y158.276 E7.79193
G1 X187.125 Y158.443 E7.80237
G1 X186.33 Y158.545 E7.81443
G1 X143.978 Y158.545 E8.45176
G1 X143.287 Y158.505 E8.46218
G1 X142.604 Y158.386 E8.47261
G1 X141.941 Y158.188 E8.48302
G1 X141.304 Y157.916 E8.49344
G1 X140.703 Y157.572 E8.50386
G1 X140.145 Y157.161 E8.51429
G1 X139.639 Y156.689 E8.52471
G1 X139.19 Y156.161 E8.53514
G1 X138.805 Y155.586 E8.54555
G1 X138.49 Y154.969 E8.55598
G1 X138.247 Y154.321 E8.56639
G1 X138.08 Y153.648 E8.57682
G1 X137.978 Y152.853 E8.58889
G1 X137.978 Y87.455 E9.57302
G1 X138.018 Y86.764 E9.58344
G1 X138.137 Y86.081 E9.59387
G1 X138.335 Y85.418 E9.60429
G1 X138.607 Y84.781 E9.61471
G1 X138.951 Y84.18 E9.62513
G1 X139.362 Y83.622 E9.63556
G1 X139.834 Y83.116 E9.64597
G1 X140.362 Y82.667 E9.6564
G1 X140.937 Y82.282 E9.66681
G1 X141.554 Y81.967 E9.67724
G1 X142.202 Y81.724 E9.68765
G1 X142.875 Y81.557 E9.69809
G1 X143.67 Y81.455 E9.71015
G1 X186.022 Y81.455 E10.34748
G1 X186.713 Y81.495 E10.3579
G1 X187.396 Y81.614 E10.36833
G1 X188.059 Y81.812 E10.37874
G1 X188.696 Y82.084 E10.38917
G1 X189.297 Y82.428 E10.39959
G1 X189.855 Y82.839 E10.41002
G1 X190.361 Y83.311 E10.42043
G1 X190.81 Y83.839 E10.43086
G1 X191.195 Y84.414 E10.44127
G1 X191.51 Y85.031 E10.4517
G1 X191.753 Y85.679 E10.46211
G1 X191.92 Y86.352 E10.47255
G1 X192.022 Y87.147 E10.48461
G1 X192.022 Y152.545 E11.46875
G1 X191.982 Y153.236 E11.47916
G1 X191.863 Y153.919 E11.4896
G1 X191.665 Y154.582 E11.50001
G1 X191.393 Y155.219 E11.51043
G0 F1285.7 X191.186 Y154.496
G1 F600 X190.572 Y155.671 E11.53038
G1 X189.695 Y156.666 E11.55034
G1 X188.606 Y157.423 E11.5703
G1 X188.001 Y157.698 E11.5803
G1 X186.715 Y158.021 E11.60025
G1 X186.022 Y158.065 E11.6107
G1 X143.534 Y158.065 E12.25008
G1 X142.662 Y157.906 E12.26342
G1 X142.027 Y157.709 E12.27343
G1 X140.852 Y157.095 E12.29338
G1 X139.857 Y156.218 E12.31334
G1 X139.1 Y155.129 E12.33329
G1 X138.825 Y154.524 E12.34329
G1 X138.502 Y153.238 E12.36325
G1 X138.458 Y152.545 E12.3737
G1 X138.458 Y87.011 E13.35988
G1 X138.617 Y86.139 E13.37322
G1 X138.814 Y85.504 E13.38323
G1 X139.428 Y84.329 E13.40318
G1 X140.305 Y83.334 E13.42314
G1 X141.394 Y82.577 E13.44309
G1 X141.999 Y82.302 E13.45309
G1 X143.285 Y81.979 E13.47305
G1 X143.978 Y81.935 E13.4835
G1 X186.466 Y81.935 E14.12288
G1 X187.338 Y82.094 E14.13621
G1 X187.973 Y82.291 E14.14622
G1 X189.148 Y82.905 E14.16617
G1 X190.143 Y83.782 E14.18613
G1 X190.9 Y84.871 E14.20609
G1 X191.175 Y85.476 E14.21609
G1 X191.498 Y86.762 E14.23604
G1 X191.542 Y87.455 E14.24649
G1 X191.542 Y152.989 E15.23268
G1 X191.383 Y153.861 E15.24601
G1 X191.186 Y154.496 E15.25602
G0 F1285.7 X190.903 Y153.802
G1 F600 X190.435 Y154.979 E15.27508
G1 X189.689 Y156.003 E15.29415
G1 X188.711 Y156.808 E15.31321
G1 X187.563 Y157.344 E15.33227
G1 X186.948 Y157.499 E15.34182
G1 X186.022 Y157.585 E15.35581
G1 X143.555 Y157.585 E15.99487
G1 X142.721 Y157.426 E16.00765
G1 X141.544 Y156.958 E16.02671
G1 X140.52 Y156.212 E16.04578
G1 X139.715 Y155.234 E16.06484
G1 X139.179 Y154.086 E16.0839
G1 X139.024 Y153.471 E16.09345
G1 X138.938 Y152.545 E16.10744
G1 X138.938 Y87.032 E17.09331
G1 X139.097 Y86.198 E17.10609
G1 X139.565 Y85.021 E17.12515
G1 X140.311 Y83.997 E17.14421
G1 X141.289 Y83.192 E17.16328
G1 X142.437 Y82.656 E17.18234
G1 X143.052 Y82.501 E17.19189
G1 X143.978 Y82.415 E17.20588
G1 X186.445 Y82.415 E17.84494
G1 X187.279 Y82.574 E17.85772
G1 X188.456 Y83.042 E17.87678
G1 X189.48 Y83.788 E17.89585
G1 X190.285 Y84.766 E17.91491
G1 X190.821 Y85.914 E17.93397
G1 X190.976 Y86.529 E17.94352
G1 X191.062 Y87.455 E17.95751
G1 X191.062 Y152.968 E18.94338
G1 X190.903 Y153.802 E18.95616
G0 F1285.7 X190.423 Y153.739
G1 F600 X190.227 Y154.31 E18.96524
G1 X189.957 Y154.85 E18.97433
G1 X189.216 Y155.8 E18.99246
G1 X188.252 Y156.523 E19.01059
G1 X187.133 Y156.968 E19.02871
G1 X186.379 Y157.105 E19.04025
G1 X143.575 Y157.105 E19.68438
G1 X142.784 Y156.946 E19.69652
G1 X142.213 Y156.75 E19.70561
G1 X141.673 Y156.48 E19.71469
G1 X140.723 Y155.739 E19.73282
G1 X140 Y154.775 E19.75096
G1 X139.555 Y153.656 E19.76908
G1 X139.418 Y152.902 E19.78061
G1 X139.418 Y87.052 E20.77155
G1 X139.577 Y86.261 E20.78369
G1 X139.773 Y85.69 E20.79278
G1 X140.043 Y85.15 E20.80186
G1 X140.784 Y84.2 E20.81999
G1 X141.748 Y83.477 E20.83812
G1 X142.867 Y83.032 E20.85625
G1 X143.621 Y82.895 E20.86778
G1 X186.425 Y82.895 E21.51191
G1 X187.216 Y83.054 E21.52405
G1 X187.787 Y83.25 E21.53314
G1 X188.327 Y83.52 E21.54222
G1 X189.277 Y84.261 E21.56035
G1 X190 Y85.225 E21.57849
G1 X190.445 Y86.344 E21.59661
G1 X190.582 Y87.098 E21.60814
G1 X190.582 Y152.948 E22.59908
G1 X190.423 Y153.739 E22.61122
G0 F1285.7 X189.943 Y153.673
G1 F600 X189.747 Y154.209 E22.61981
G1 X189.142 Y155.174 E22.63695
G1 X188.744 Y155.584 E22.64555
G1 X187.798 Y156.218 E22.66269
G1 X187.268 Y156.43 E22.67128
G1 X186.713 Y156.566 E22.67988
G1 X186.022 Y156.625 E22.69031
G1 X143.596 Y156.625 E23.32876
G1 X142.85 Y156.466 E23.34024
G1 X142.314 Y156.27 E23.34883
G1 X141.349 Y155.665 E23.36597
G1 X140.939 Y155.267 E23.37456
G1 X140.305 Y154.321 E23.3917
G1 X140.093 Y153.791 E23.40029
G1 X139.957 Y153.236 E23.40889
G1 X139.898 Y152.545 E23.41933
G1 X139.898 Y87.073 E24.40458
G1 X140.057 Y86.327 E24.41606
G1 X140.253 Y85.791 E24.42464
G1 X140.858 Y84.826 E24.44178
G1 X141.256 Y84.416 E24.45038
G1 X142.202 Y83.782 E24.46752
G1 X142.732 Y83.57 E24.47611
G1 X143.287 Y83.434 E24.48471
G1 X143.978 Y83.375 E24.49515
G1 X186.404 Y83.375 E25.13359
G1 X187.15 Y83.534 E25.14507
G1 X187.686 Y83.73 E25.15366
G1 X188.651 Y84.335 E25.1708
G1 X189.061 Y84.733 E25.1794
G1 X189.695 Y85.679 E25.19653
G1 X189.907 Y86.209 E25.20512
G1 X190.043 Y86.764 E25.21372
G1 X190.102 Y87.455 E25.22416
G1 X190.102 Y152.927 E26.20941
G1 X189.943 Y153.673 E26.22089
G0 F1285.7 X189.463 Y153.603
G1 F600 X189.268 Y154.102 E26.22895
G1 X188.667 Y154.987 E26.24505
G1 X188.275 Y155.353 E26.25312
G1 X187.35 Y155.891 E26.26922
G1 X186.839 Y156.051 E26.27728
G1 X186.239 Y156.145 E26.28642
G1 X143.619 Y156.145 E26.92779
G1 X142.92 Y155.986 E26.93857
G1 X142.421 Y155.791 E26.94663
G1 X141.536 Y155.19 E26.96273
G1 X141.17 Y154.798 E26.9708
G1 X140.632 Y153.873 E26.98691
G1 X140.472 Y153.362 E26.99496
G1 X140.378 Y152.762 E27.0041
G1 X140.378 Y87.096 E27.99228
G1 X140.537 Y86.397 E28.00306
G1 X140.732 Y85.898 E28.01112
G1 X141.333 Y85.013 E28.02722
G1 X141.725 Y84.647 E28.03529
G1 X142.65 Y84.109 E28.0514
G1 X143.161 Y83.949 E28.05945
G1 X143.761 Y83.855 E28.06859
G1 X186.381 Y83.855 E28.70996
G1 X187.08 Y84.014 E28.72075
G1 X187.579 Y84.209 E28.72881
G1 X188.464 Y84.81 E28.74491
G1 X188.83 Y85.202 E28.75298
G1 X189.368 Y86.127 E28.76908
G1 X189.528 Y86.638 E28.77714
G1 X189.622 Y87.238 E28.78628
G1 X189.622 Y152.904 E29.77445
G1 X189.463 Y153.603 E29.78524
G0 F1285.7 X188.983 Y153.527
G1 F600 X188.789 Y153.987 E29.79275
G1 X188.194 Y154.785 E29.80773
G1 X187.809 Y155.103 E29.81524
G1 X187.378 Y155.355 E29.82276
G1 X186.912 Y155.535 E29.83027
G1 X186.302 Y155.665 E29.83966
G1 X143.601 Y155.665 E30.48224
G1 X142.536 Y155.312 E30.49913
G1 X141.738 Y154.717 E30.51411
G1 X141.42 Y154.332 E30.52162
G1 X141.168 Y153.901 E30.52913
G1 X140.988 Y153.435 E30.53665
G1 X140.858 Y152.825 E30.54604
G1 X140.858 Y87.12 E31.5348
G1 X141.017 Y86.473 E31.54482
G1 X141.211 Y86.013 E31.55233
G1 X141.806 Y85.215 E31.56731
G1 X142.191 Y84.897 E31.57483
G1 X142.622 Y84.645 E31.58234
G1 X143.088 Y84.465 E31.58986
G1 X143.698 Y84.335 E31.59924
G1 X186.399 Y84.335 E32.24183
G1 X187.464 Y84.688 E32.25871
G1 X188.262 Y85.283 E32.27369
G1 X188.58 Y85.668 E32.28121
G1 X188.832 Y86.099 E32.28872
G1 X189.012 Y86.565 E32.29624
G1 X189.142 Y87.175 E32.30562
G1 X189.142 Y152.88 E33.29438
G1 X188.983 Y153.527 E33.30441
G0 F1285.7 X188.504 Y153.446
G1 F600 X188.047 Y154.239 E33.31818
G1 X187.723 Y154.564 E33.32508
G1 X186.932 Y155.023 E33.33885
G1 X186.489 Y155.143 E33.34575
G1 X186.022 Y155.185 E33.35281
G1 X143.978 Y155.185 E33.98551
G1 X143.077 Y155.027 E33.99927
G1 X142.284 Y154.57 E34.01305
G1 X141.959 Y154.246 E34.01995
G1 X141.5 Y153.455 E34.03371
G1 X141.38 Y153.012 E34.04062
G1 X141.338 Y152.545 E34.04768
G1 X141.338 Y87.149 E35.03178
G1 X141.496 Y86.554 E35.04105
G1 X141.953 Y85.761 E35.05482
G1 X142.277 Y85.436 E35.06173
G1 X143.068 Y84.977 E35.07549
G1 X143.511 Y84.857 E35.0824
G1 X143.978 Y84.815 E35.08945
G1 X186.022 Y84.815 E35.72215
G1 X186.923 Y84.973 E35.73591
G1 X187.716 Y85.43 E35.74969
G1 X188.041 Y85.754 E35.75659
G1 X188.5 Y86.545 E35.77036
G1 X188.62 Y86.988 E35.77726
G1 X188.662 Y87.455 E35.78432
G1 X188.662 Y152.851 E36.76843
G1 X188.504 Y153.446 E36.77769
G0 F1285.7 X188.024 Y153.356
G1 F600 X187.573 Y154.049 E36.79013
G1 X187.256 Y154.318 E36.79639
G1 X186.5 Y154.651 E36.80882
G1 X186.022 Y154.705 E36.81606
G1 X143.7 Y154.705 E37.45294
G1 X143.167 Y154.547 E37.46131
G1 X142.474 Y154.096 E37.47375
G1 X142.205 Y153.779 E37.48001
G1 X141.872 Y153.023 E37.49244
G1 X141.818 Y152.545 E37.49968
G1 X141.818 Y87.177 E38.48336
G1 X141.976 Y86.644 E38.49173
G1 X142.427 Y85.951 E38.50417
G1 X142.744 Y85.682 E38.51043
G1 X143.5 Y85.349 E38.52286
G1 X143.978 Y85.295 E38.5301
G1 X186.3 Y85.295 E39.16698
G1 X186.833 Y85.453 E39.17534
G1 X187.526 Y85.904 E39.18779
G1 X187.795 Y86.221 E39.19404
G1 X188.128 Y86.977 E39.20647
G1 X188.182 Y87.455 E39.21371
G1 X188.182 Y152.823 E40.1974
G1 X188.024 Y153.356 E40.20577
G0 F1285.7 X187.544 Y153.255
G1 F600 X187.101 Y153.833 E40.21672
G1 X186.797 Y154.036 E40.22223
G1 X186.455 Y154.168 E40.22774
G1 X186.022 Y154.225 E40.23431
G1 X143.7 Y154.225 E40.87119
G1 X142.955 Y153.877 E40.88357
G1 X142.69 Y153.624 E40.88908
G1 X142.487 Y153.32 E40.89458
G1 X142.355 Y152.978 E40.9001
G1 X142.298 Y152.545 E40.90667
G1 X142.298 Y87.208 E41.88989
G1 X142.456 Y86.745 E41.89725
G1 X142.899 Y86.167 E41.90821
G1 X143.203 Y85.964 E41.91371
G1 X143.545 Y85.832 E41.91923
G1 X143.978 Y85.775 E41.9258
G1 X186.3 Y85.775 E42.56268
G1 X187.045 Y86.123 E42.57506
G1 X187.31 Y86.376 E42.58057
G1 X187.513 Y86.68 E42.58607
G1 X187.645 Y87.022 E42.59159
G1 X187.702 Y87.455 E42.59816
G1 X187.702 Y152.792 E43.58138
G1 X187.544 Y153.255 E43.58874
G0 F1285.7 X187.065 Y153.138
G1 F600 X186.879 Y153.385 E43.59339
G1 X186.352 Y153.699 E43.60263
G1 X186.022 Y153.745 E43.60764
G1 X143.741 Y153.745 E44.2439
G1 X143.138 Y153.402 E44.25434
G1 X142.824 Y152.875 E44.26357
G1 X142.778 Y152.545 E44.26859
G1 X142.778 Y87.246 E45.25124
G1 X142.935 Y86.862 E45.25748
G1 X143.121 Y86.615 E45.26213
G1 X143.648 Y86.301 E45.27136
G1 X143.978 Y86.255 E45.27638
G1 X186.259 Y86.255 E45.91264
G1 X186.862 Y86.598 E45.92308
G1 X187.176 Y87.125 E45.93231
G1 X187.222 Y87.455 E45.93733
G1 X187.222 Y152.754 E46.91998
G1 X187.065 Y153.138 E46.92622
G0 F1285.7 X186.587 Y152.991
G1 F600 X186.41 Y153.151 E46.92981
G1 X186.143 Y153.265 E46.93418
